outputs/icons/action/cached_round.svg

<svg xmlns="http://www.w3.org/2000/svg" width="1200" height="1200" fill="none"><g clip-path="url(#a)"><path fill="#000" d="M932.5 417.5 793 557c-16 16-5 43 17.5 43H900c0 165.5-134.5 300-300 300-39.5 0-78-7.5-112.498-22-18.001-7.5-38.501-2-52.001 11.5-25.499 25.5-16.5 68.5 17 82C498.001 990 548 1000 600 1000c221 0 400-179 400-400h89.5c22.5 0 33.5-27 17.5-42.5L967.5 418c-9.5-10-25.5-10-35-.5M300.001 600c0-165.5 134.501-300 299.999-300 39.5 0 78 7.5 112.5 22 18 7.5 38.5 2 52-11.5 25.5-25.5 16.5-68.5-17-82C702 210 652 200 600 200c-220.999 0-399.999 179-399.999 400h-89.499c-22.501 0-33.5 27-17.5 42.5L232.501 782c10.001 10 25.501 10 35.501 0l139.499-139.5c15.5-15.5 4.501-42.5-18-42.5z"/></g><defs><clipPath id="a"><path fill="#fff" d="M0 0h1200v1200H0z"/></clipPath></defs></svg>

<svg width="1200" height="1200" viewBox="0 0 1200 1200" fill="none" xmlns="http://www.w3.org/2000/svg"><g clip-path="url(#clip0_223_1912)"><path d="M932.5 417.5L793 557C777 573 788 600 810.5 600H900C900 765.5 765.5 900 600 900C560.5 900 522 892.5 487.502 878C469.501 870.5 449.001 876 435.501 889.5C410.002 915 419.001 958 452.501 971.5C498.001 990 548 1000 600 1000C821 1000 1000 821 1000 600H1089.5C1112 600 1123 573 1107 557.5L967.5 418C958 408 942 408 932.5 417.5ZM300.001 600C300.001 434.5 434.502 300 600 300C639.5 300 678 307.5 712.5 322C730.5 329.5 751 324 764.5 310.5C790 285 781 242 747.5 228.5C702 210 652 200 600 200C379.001 200 200.001 379 200.001 600H110.502C88.001 600 77.002 627 93.002 642.5L232.501 782C242.502 792 258.002 792 268.002 782L407.501 642.5C423.001 627 412.002 600 389.501 600H300.001Z" fill="#1D1E23"/></g><defs><clipPath id="clip0_223_1912"><path width="24" fill="white" d="M0 0H1200V1200H0V0z"/></clipPath></defs></svg>
